X:1
T:Title
%%score { ( 1 3 ) | ( 2 4 ) }
L:1/8
M:9/8
K:Ab
V:1 treble nm="Grand Piano"
V:3 treble 
V:2 bass 
V:4 bass 
V:1
 z3 z3[Q:1/4=100] [CE][_C=D][=CE] | z3 z3 .[CA]3 | [FB]3 F3 FGA | E3 [A,CA]3 [Ec]dc |[M:3/4] B6 | %5
[M:3/8] E=D[CE] |[M:9/8] z3 z3 .[CA]3 | [FB]3 [DF]3 Bc[Fd] | c3 A3 GAB |[M:3/4] [CA]6 | %10
[M:3/8] dcB |[M:9/8] c3 [Ee]3 Bcd | c3 A3 AGA | [Af]3 e3 d2 c |[M:3/4] B6 |[M:3/8] E=D[CE] | %16
[M:9/8] z3 z3 .[CA]3 | [FB]3 [DF]3 Bc[Fd] | c3 A3 GAB |[M:7/4] [CA]6 z2 z2 z4 |] %20
V:2
 z3 z3 [A,,A,]2 [A,,A,] | [A,,A,]3 [A,,A,]3 A,,B,,C, | z3 z3 .A,3 | z3 z3 .A,3[K:treble] | %4
[M:3/4][K:bass] [E,G,E]6 |[M:3/8] C_CA, |[M:9/8] A,3 A,3 A,,B,,C, | %7
 [D,A,]3 [D,A,]3 [D,A,]2 [D,A,] | [E,A,E]3 [E,CE]3 [B,D][A,C][E,G,D] |[M:3/4] [A,,A,]6 | %10
[M:3/8] B, z z |[M:9/8] [A,E]3 [C,A,]3 [E,G,E]2 [D,B,E] | z3 z3 .C3 | %13
 [D,D]3[K:treble] [A,CA]3 [G,B,E]2[K:bass] [A,E] |[M:3/4] [E,G,E]6 |[M:3/8] C z z | %16
[M:9/8] A,3 A,3 A,,B,,C, | [D,A,]3 [D,A,]3 [D,A,]2 [D,A,] | z3 z3 .[B,D]3 | %19
[M:7/4] [A,,A,]6 z2 z2 z4 |] %20
V:3
 x9 | [DF]3 [CE]3 E-[B,EG][A,EA] | x9 | x9 |[M:3/4] x6 |[M:3/8] x3 | %6
[M:9/8] [DF]3 [CE]3 E-[B,EG][A,EA] | z3 z3 .F3 | x9 |[M:3/4] x6 |[M:3/8] x3 |[M:9/8] x9 | x9 | x9 | %14
[M:3/4] x6 |[M:3/8] x3 |[M:9/8] [DF]3 [CE]3 E-[B,EG][A,EA] | z3 z3 .F3 | x9 |[M:7/4] x14 |] %20
V:4
 x9 | x9 | [D,A,]3 [D,A,D]3 [D,D]-[D,G,D][D,F,D] | [C,A,]3 A,,3 z[K:treble] F[A,E] | %4
[M:3/4][K:bass] x6 |[M:3/8] A,2 z |[M:9/8] x9 | x9 | z3 z3 .E,3 |[M:3/4] x6 | %10
[M:3/8] [E,E]-[E,A,E][E,G,E] |[M:9/8] x9 | [A,E]3 [A,CE]3 [A,E]-[A,B,E][A,CE] | %13
 x3[K:treble] x5[K:bass] x |[M:3/4] x6 |[M:3/8] A,-[A,_C]A, |[M:9/8] x9 | x9 | %18
 [E,A,E]3 [E,CE]3 E,-[E,A,C][E,G,D] |[M:7/4] x14 |] %20

